X:5
T:The Woman of the House
C:Traditional
N:Play 3 Times
N:The Corofin Plain Set, Figure 3, Tune 2 of 2
Z:Gordon Turnbull, Edinburgh
Z:gturnbull@theflow.org.uk
Z:http://www.theflow.org.uk
R:reel
L:1/8
M:C
K:G
GBBA B2 BA | GABd eBdB | A2 AG A2 Bd  | eB~B2 eBdB |
GBBA B2 BA | GABd eBdB | GABG A2 GA  | BGAG EG~G2 :||
gfed eB~B2 | eBgB eB~B2 | gfed eB~B2 | eaag a3 e |
gfed eB~B2 | egfd eB~B2 | G2 BG A2 GA | BGAG EG~G2 :||
